apps/www/public/images/logos/publicity/fixed-width/langchain.svg

<svg width="180" height="60" viewBox="0 0 180 60" fill="none" xmlns="http://www.w3.org/2000/svg">
<g clip-path="url(#clip0_2080_14357)">
<path d="M55.0813 24.4218C54.4477 24.4218 53.852 24.6673 53.4061 25.1132L51.6041 26.9103C51.118 27.3951 50.8683 28.0682 50.9194 28.7584C50.9231 28.796 50.9267 28.8337 50.9304 28.8726C50.995 29.4023 51.2277 29.8798 51.6041 30.2541C51.8637 30.5129 52.1499 30.677 52.4972 30.7912C52.5154 30.8957 52.5252 31.0013 52.5252 31.1071C52.5252 31.5834 52.34 32.0305 52.0037 32.3659L51.8928 32.4765C51.291 32.2711 50.789 31.971 50.3358 31.519C49.734 30.9187 49.3356 30.1605 49.1857 29.3282L49.165 29.2128L49.0736 29.2869C49.0115 29.3367 48.953 29.3902 48.8982 29.4448L47.0962 31.2419C46.1727 32.1629 46.1727 33.6636 47.0962 34.5846C47.558 35.0451 48.1647 35.2759 48.7727 35.2759C49.3807 35.2759 49.9862 35.0451 50.4479 34.5846L52.2499 32.7875C53.1734 31.8665 53.1734 30.3671 52.2499 29.4448C52.0037 29.1995 51.7102 29.0147 51.3775 28.8957C51.3593 28.7875 51.3495 28.6794 51.3495 28.5737C51.3495 28.0561 51.5542 27.5652 51.9294 27.1909C52.5325 27.3963 53.0674 27.7292 53.5194 28.18C54.12 28.779 54.5172 29.536 54.6695 30.3707L54.6902 30.4861L54.7816 30.4121C54.8437 30.3623 54.9022 30.3088 54.9583 30.2529L56.7602 28.4558C57.6837 27.5348 57.6849 26.0342 56.7602 25.1132C56.3131 24.6673 55.7185 24.4218 55.0838 24.4218H55.0813Z" fill="#7E7E7E"/>
<path d="M54.1157 17.8495H30.5382C23.8202 17.8495 18.3547 23.3003 18.3547 30.0002C18.3547 36.7 23.8202 42.1507 30.5382 42.1507H54.1157C60.8337 42.1507 66.2992 36.7 66.2992 30.0002C66.2992 23.3003 60.8337 17.8495 54.1157 17.8495ZM42.4866 36.8992C42.0979 36.9794 41.6605 36.994 41.3632 36.6842C41.2536 36.9357 40.9977 36.8032 40.8003 36.7705C40.7821 36.8215 40.7663 36.8664 40.7492 36.9175C40.0925 36.9612 39.6003 36.2929 39.2872 35.7887C38.6658 35.4533 37.9604 35.2492 37.3256 34.898C37.2891 35.4764 37.4158 36.1933 36.8638 36.5663C36.8358 37.6781 38.5501 36.6976 38.7072 37.5262C38.5854 37.5396 38.4502 37.5067 38.3527 37.6003C37.9056 38.0341 37.3927 37.2723 36.8773 37.587C36.1852 37.9345 36.1158 38.2188 35.2593 38.2905C35.2118 38.2188 35.2313 38.1714 35.2715 38.1277C35.5127 37.8482 35.5298 37.5189 35.9416 37.3998C35.5176 37.333 35.163 37.5663 34.8061 37.751C34.3419 37.9406 34.3456 37.3233 33.6316 37.7838C33.5524 37.7194 33.5902 37.6611 33.6353 37.6113C33.8168 37.3901 34.0556 37.3573 34.3249 37.3695C33.0005 36.6331 32.3767 38.2698 31.7651 37.4558C31.5811 37.5044 31.5117 37.6696 31.3959 37.7862C31.296 37.6769 31.3716 37.5444 31.3765 37.4156C31.2571 37.3597 31.1059 37.333 31.1413 37.1422C30.9074 37.0633 30.7441 37.2018 30.5699 37.333C30.4127 37.2115 30.6759 37.0341 30.7246 36.9077C30.8647 36.6647 31.1839 36.8579 31.346 36.6829C31.8065 36.4217 32.4486 36.8458 32.9749 36.7741C33.3806 36.8251 33.8826 36.4096 33.6791 35.9952C33.2454 35.4424 33.3221 34.7194 33.3124 34.0584C33.2588 33.6732 32.3316 33.1823 32.0636 32.7668C31.7322 32.3926 31.4739 31.9588 31.2156 31.5323C30.2836 29.7328 30.5772 27.4206 29.4027 25.7498C28.8715 26.0427 28.1795 25.9042 27.7214 25.5117C27.4741 25.7365 27.4631 26.0305 27.4436 26.3428C26.8503 25.7511 26.9246 24.6332 27.3985 23.9747C27.5923 23.7146 27.8238 23.5008 28.082 23.3124C28.1405 23.2699 28.16 23.2286 28.1588 23.163C28.6279 21.0585 31.8272 21.4643 32.8385 22.9552C33.5719 23.8726 33.7937 25.0864 34.6258 25.9382C35.7454 27.1605 37.0211 28.2371 38.0542 29.5384C39.0313 30.728 39.7294 32.1228 40.3386 33.5287C40.5871 33.9952 40.5896 34.5675 40.9575 34.9661C41.139 35.2067 42.026 35.8616 41.8335 36.0937C41.9444 36.3342 42.7729 36.6659 42.4853 36.8992H42.4866ZM58.0253 29.7207L56.2235 31.5177C55.7434 31.9965 55.1501 32.3537 54.5068 32.5493L54.4739 32.559L54.4617 32.5906C54.2521 33.1423 53.9341 33.6344 53.515 34.0512L51.7131 35.8482C50.9272 36.632 49.8819 37.0633 48.7683 37.0633C47.6548 37.0633 46.6094 36.632 45.8236 35.8482C44.1996 34.2285 44.1996 31.5943 45.8236 29.9746L47.6255 28.1776C48.108 27.6964 48.6855 27.3501 49.3398 27.1496L49.3727 27.1399L49.3848 27.1083C49.5944 26.5566 49.9136 26.0634 50.334 25.6429L52.1358 23.8459C52.9217 23.0621 53.967 22.6308 55.0806 22.6308C56.1942 22.6308 57.2395 23.0621 58.0253 23.8459C58.8112 24.6296 59.2437 25.6721 59.2437 26.7827C59.2437 27.8932 58.8112 28.9369 58.0253 29.7195V29.7207Z" fill="#7E7E7E"/>
<path d="M35.1569 34.7243C34.9985 35.3391 34.9473 36.3853 34.1457 36.4156C34.0799 36.7705 34.3918 36.9041 34.6769 36.7899C34.9583 36.6611 35.0923 36.892 35.1873 37.1216C35.6223 37.1848 36.2656 36.977 36.29 36.463C35.6406 36.09 35.4395 35.3804 35.1581 34.7231L35.1569 34.7243Z" fill="#7E7E7E"/>
<path d="M77.5869 24.2184H75.4466V37.2018H84.6267V35.1337H77.5869V24.2184Z" fill="#7E7E7E"/>
<path d="M95.3861 37.2018H97.5265V37.1787H97.5546L97.5587 37.0834C97.5593 37.0556 97.5671 36.7957 97.5277 36.3953V31.5633C97.5277 29.7453 98.8531 28.9177 100.085 28.9177C101.41 28.9177 102.054 29.6318 102.054 31.1013V37.2018H104.195V30.8165C104.195 28.3913 102.654 26.8842 100.174 26.8842C99.1206 26.8842 98.1803 27.1835 97.4417 27.7523L97.422 27.0623H95.3891V37.2018H95.3861Z" fill="#7E7E7E"/>
<path d="M112.906 27.8071C112.162 27.2028 111.205 26.8842 110.127 26.8842C107.24 26.8842 105.447 28.8744 105.447 32.0782C105.447 35.2819 107.24 37.2904 110.127 37.2904C111.145 37.2904 112.053 37.0132 112.769 36.4858C112.708 38.0574 111.723 38.9909 110.109 38.9909C108.752 38.9909 107.984 38.5588 107.827 37.7071L107.807 37.6012L105.728 38.2354L105.746 38.3211C106.097 40.0139 107.681 41.0244 109.985 41.0244C111.548 41.0244 112.774 40.599 113.629 39.7589C114.493 38.9119 114.93 37.6916 114.93 36.1326V27.0623H112.95L112.907 27.8071H112.906ZM112.772 32.1677C112.772 34.102 111.83 35.2579 110.251 35.2579C108.558 35.2579 107.588 34.0991 107.588 32.0791C107.588 30.0591 108.559 28.9177 110.251 28.9177C111.792 28.9177 112.757 30.0677 112.772 31.9184V32.1677Z" fill="#7E7E7E"/>
<path d="M125.475 33.0847C125.032 34.5196 123.893 35.3107 122.269 35.3107C119.947 35.3107 118.503 33.5476 118.503 30.7096C118.503 27.8716 119.959 26.1085 122.304 26.1085C123.927 26.1085 124.862 26.7446 125.338 28.1699L125.56 28.8368L127.581 27.8879L127.391 27.3538C126.622 25.1856 124.844 24.0403 122.251 24.0403C120.489 24.0403 118.994 24.6765 117.926 25.8795C116.869 27.0709 116.31 28.7406 116.31 30.7106C116.31 34.7621 118.648 37.3808 122.269 37.3808C124.82 37.3808 126.796 36.046 127.554 33.8094L127.748 33.2377L125.672 32.4486L125.474 33.0857L125.475 33.0847Z" fill="#7E7E7E"/>
<path d="M133.469 26.8842C132.446 26.8842 131.537 27.1643 130.823 27.6965V22.9741H128.683V37.2028H130.823V31.5643C130.823 29.7348 132.148 28.9014 133.38 28.9014C134.705 28.9014 135.35 29.6155 135.35 31.085V37.2038H137.49V30.8001C137.49 28.4221 135.912 26.8862 133.47 26.8862L133.469 26.8842Z" fill="#7E7E7E"/>
<path d="M150.001 22.6681C149.206 22.6681 148.628 23.2455 148.628 24.0404C148.628 24.8354 149.206 25.4128 150.001 25.4128C150.795 25.4128 151.373 24.8354 151.373 24.0404C151.373 23.2455 150.795 22.6681 150.001 22.6681Z" fill="#7E7E7E"/>
<path d="M157.623 26.8842C156.569 26.8842 155.629 27.1835 154.891 27.7523L154.87 27.0623H152.838V37.2018H154.978V31.5633C154.978 29.7453 156.303 28.9177 157.535 28.9177C158.86 28.9177 159.505 29.6318 159.505 31.1013V37.2018H161.646V30.8165C161.646 28.3913 160.105 26.8842 157.625 26.8842H157.623Z" fill="#7E7E7E"/>
<path d="M151.04 27.0623H148.911V32.0888C148.32 31.5922 147.623 31.2169 146.838 30.9715V30.4604C146.838 28.221 145.368 26.8842 142.905 26.8842C140.904 26.8842 139.408 27.8236 138.798 29.4605L138.634 29.9022L140.35 31.1668L140.644 30.3998C141.033 29.3884 141.751 28.9168 142.905 28.9168C144.059 28.9168 144.697 29.4721 144.697 30.5663V30.6231C144.629 30.6202 144.559 30.6183 144.49 30.6173C142.199 30.5807 140.527 31.1168 139.521 32.2081C138.493 33.3244 138.583 34.5784 138.597 34.717L138.606 34.8132H138.616C138.776 36.3752 140.14 37.378 142.123 37.378C143.215 37.378 144.224 37.0739 144.987 36.5186L144.995 37.2009H146.838V34.0289L146.798 34.0001C146.537 33.8095 146.083 33.5631 145.399 33.4765C145.185 33.4496 144.98 33.4361 144.792 33.44H144.696V33.7316C144.696 34.4023 143.925 35.3464 142.211 35.3464C140.945 35.3464 140.756 34.8142 140.756 34.4966V34.4639C140.766 34.3215 140.825 33.9731 141.14 33.6488C141.539 33.2359 142.439 32.7528 144.455 32.7836C145.915 32.8067 147.035 33.2148 147.785 33.9971C148.705 34.9576 148.878 36.2722 148.909 36.7871V37.2018H151.039V27.0623H151.04Z" fill="#7E7E7E"/>
<path d="M89.8521 26.84C87.8514 26.84 86.3552 27.7793 85.7456 29.4162L85.5814 29.858L87.2973 31.1225L87.5917 30.3555C87.9797 29.3441 88.6986 28.8725 89.8521 28.8725C91.0062 28.8725 91.6444 29.4278 91.6444 30.522V30.779L89.4401 31.1678C86.8561 31.6249 85.5456 32.7297 85.5456 34.4504C85.5456 36.1712 86.9284 37.3337 89.0688 37.3337C90.1613 37.3337 91.1698 37.0296 91.9328 36.4743L91.9417 37.1566H93.7836V30.4162C93.7836 28.1767 92.3143 26.84 89.8521 26.84ZM91.6444 32.7846V33.6882C91.6444 34.359 90.873 35.3031 89.1583 35.3031C87.8926 35.3031 87.7045 34.7709 87.7045 34.4533C87.7045 34.1713 87.7045 33.5111 89.9464 33.0954L91.6444 32.7855V32.7846Z" fill="#7E7E7E"/>
</g>
<defs>
<clipPath id="clip0_2080_14357">
<rect width="143.291" height="24.4788" fill="white" transform="translate(18.3547 17.7606)"/>
</clipPath>
</defs>
</svg>

<svg xmlns="http://www.w3.org/2000/svg" width="180" height="60" fill="none" viewBox="0 0 180 60"><g fill="#7e7e7e" clip-path="url(#a)"><path d="M55.081 24.422c-.633 0-1.229.245-1.675.691l-1.802 1.797a2.36 2.36 0 0 0-.674 1.963c.065.53.298 1.007.674 1.381.26.259.546.423.893.537q.028.157.028.316c0 .476-.185.924-.521 1.259l-.111.11a3.9 3.9 0 0 1-1.557-.957c-.602-.6-1-1.358-1.15-2.19l-.021-.116-.091.074q-.093.075-.176.158l-1.802 1.797a2.363 2.363 0 0 0 1.677 4.034c.608 0 1.213-.23 1.675-.691l1.802-1.797a2.363 2.363 0 0 0 0-3.343 2.34 2.34 0 0 0-.873-.55 1.942 1.942 0 0 1 .552-1.705 4.1 4.1 0 0 1 1.59.99c.601.599.998 1.356 1.15 2.19l.021.116.092-.074q.093-.075.176-.16l1.802-1.796a2.362 2.362 0 0 0-1.676-4.034z"/><path d="M54.116 17.85H30.538c-6.718 0-12.183 5.45-12.183 12.15s5.465 12.15 12.183 12.15h23.578c6.718 0 12.183-5.45 12.183-12.15s-5.465-12.15-12.183-12.15M42.486 36.9c-.388.08-.825.094-1.123-.216-.11.252-.365.12-.563.087l-.05.146c-.657.044-1.15-.624-1.463-1.128-.621-.336-1.327-.54-1.961-.891-.037.578.09 1.295-.462 1.668-.028 1.112 1.686.132 1.843.96-.122.014-.257-.02-.354.074-.447.434-.96-.328-1.476-.013-.692.347-.761.632-1.618.703-.047-.071-.028-.119.013-.162.24-.28.258-.61.67-.728-.424-.067-.779.166-1.136.351-.464.19-.46-.428-1.174.033-.08-.065-.042-.123.003-.173.182-.22.42-.254.69-.241-1.325-.737-1.948.9-2.56.086-.184.048-.253.214-.37.33-.099-.11-.023-.242-.018-.37-.12-.056-.271-.083-.236-.274-.234-.079-.397.06-.571.191-.157-.121.106-.299.155-.425.14-.243.459-.05.621-.225.46-.261 1.103.163 1.629.091.406.051.908-.364.704-.779-.434-.553-.357-1.276-.367-1.937-.053-.385-.98-.876-1.248-1.291-.332-.374-.59-.808-.848-1.235-.932-1.8-.639-4.111-1.813-5.782-.531.293-1.223.154-1.682-.238-.247.224-.258.518-.277.83-.594-.59-.52-1.709-.046-2.367.194-.26.426-.474.684-.663.058-.042.078-.083.077-.149.469-2.105 3.668-1.699 4.68-.208.733.918.955 2.131 1.787 2.983 1.12 1.223 2.395 2.3 3.428 3.6.977 1.19 1.675 2.585 2.285 3.99.248.467.25 1.04.619 1.438.181.24 1.068.896.876 1.128.11.24.939.572.651.805zm15.54-7.18-1.803 1.798a4.15 4.15 0 0 1-1.716 1.031l-.033.01-.012.032a4.1 4.1 0 0 1-.947 1.46l-1.802 1.797a4.14 4.14 0 0 1-2.945 1.215 4.15 4.15 0 0 1-2.945-7.089l1.803-1.796a4.1 4.1 0 0 1 1.714-1.028l.033-.01.012-.032a4.1 4.1 0 0 1 .949-1.465l1.802-1.797a4.14 4.14 0 0 1 2.945-1.215 4.14 4.14 0 0 1 2.944 1.215 4.12 4.12 0 0 1 1.219 2.937c0 1.11-.433 2.154-1.219 2.936z"/><path d="M35.157 34.724c-.158.615-.21 1.661-1.011 1.692-.066.355.246.488.53.374.282-.129.416.102.511.332.435.063 1.079-.145 1.103-.659-.65-.373-.85-1.083-1.132-1.74zM77.587 24.218h-2.14v12.984h9.18v-2.068h-7.04zM95.386 37.202h2.14v-.023h.029l.004-.096c0-.027.008-.287-.031-.688v-4.832c0-1.818 1.325-2.645 2.557-2.645 1.325 0 1.969.714 1.969 2.183v6.1h2.141v-6.384c0-2.426-1.541-3.933-4.021-3.933-1.053 0-1.994.3-2.732.868l-.02-.69h-2.033v10.14zM112.906 27.807c-.744-.604-1.701-.923-2.779-.923-2.887 0-4.68 1.99-4.68 5.194s1.793 5.212 4.68 5.212c1.018 0 1.926-.277 2.642-.804-.061 1.571-1.046 2.505-2.66 2.505-1.357 0-2.125-.432-2.282-1.284l-.02-.106-2.079.634.018.086c.351 1.693 1.935 2.703 4.239 2.703 1.563 0 2.789-.425 3.644-1.265.864-.847 1.301-2.067 1.301-3.626v-9.07h-1.98zm-.134 4.36c0 1.935-.942 3.09-2.521 3.09-1.693 0-2.663-1.158-2.663-3.178s.971-3.161 2.663-3.161c1.541 0 2.506 1.15 2.521 3zM125.475 33.085c-.443 1.435-1.582 2.226-3.206 2.226-2.322 0-3.766-1.763-3.766-4.601s1.456-4.602 3.801-4.602c1.623 0 2.558.637 3.034 2.062l.222.667 2.021-.95-.19-.533c-.769-2.168-2.547-3.314-5.14-3.314-1.762 0-3.257.637-4.325 1.84-1.057 1.19-1.616 2.86-1.616 4.83 0 4.052 2.338 6.67 5.959 6.67 2.551 0 4.527-1.334 5.285-3.57l.194-.572-2.076-.79zM133.469 26.884c-1.023 0-1.932.28-2.646.813v-4.723h-2.14v14.229h2.14v-5.639c0-1.83 1.325-2.663 2.557-2.663 1.325 0 1.97.715 1.97 2.184v6.119h2.14V30.8c0-2.378-1.578-3.914-4.02-3.914zM150.001 22.668c-.795 0-1.373.578-1.373 1.372s.578 1.373 1.373 1.373c.794 0 1.372-.578 1.372-1.373 0-.794-.578-1.372-1.372-1.372M157.623 26.884c-1.054 0-1.994.3-2.732.868l-.021-.69h-2.032v10.14h2.14v-5.639c0-1.818 1.325-2.645 2.557-2.645 1.325 0 1.97.714 1.97 2.183v6.1h2.141v-6.384c0-2.426-1.541-3.933-4.021-3.933zM151.04 27.062h-2.129v5.027a6 6 0 0 0-2.073-1.117v-.512c0-2.239-1.47-3.576-3.933-3.576-2.001 0-3.497.94-4.107 2.576l-.164.442 1.716 1.265.294-.767c.389-1.012 1.107-1.483 2.261-1.483s1.792.555 1.792 1.65v.056l-.207-.006c-2.291-.036-3.963.5-4.969 1.591-1.028 1.116-.938 2.37-.924 2.509l.009.096h.01c.16 1.562 1.524 2.565 3.507 2.565 1.092 0 2.101-.304 2.864-.86l.008.683h1.843v-3.172l-.04-.029c-.261-.19-.715-.437-1.399-.523a4 4 0 0 0-.607-.037h-.096v.292c0 .67-.771 1.614-2.485 1.614-1.266 0-1.455-.532-1.455-.85v-.032c.01-.142.069-.49.384-.815.399-.413 1.299-.896 3.315-.865 1.46.023 2.58.43 3.33 1.213.92.96 1.093 2.275 1.124 2.79v.415h2.13v-10.14zM89.852 26.84c-2 0-3.497.94-4.106 2.576l-.165.442 1.716 1.264.295-.767c.388-1.01 1.107-1.483 2.26-1.483 1.154 0 1.792.556 1.792 1.65v.257l-2.204.389c-2.584.457-3.894 1.562-3.894 3.282 0 1.721 1.382 2.884 3.523 2.884 1.092 0 2.1-.304 2.864-.86l.009.683h1.842v-6.74c0-2.24-1.47-3.577-3.932-3.577m1.792 5.945v.903c0 .671-.771 1.615-2.486 1.615-1.265 0-1.454-.532-1.454-.85 0-.282 0-.942 2.242-1.358z"/></g><defs><clipPath id="a"><path fill="#fff" d="M18.355 17.76h143.29v24.48H18.356z"/></clipPath></defs></svg>
